X: 20303
T: BATES' WALTZ
C:
%R: waltz
B: Elias Howe "The Musician's Companion" 1843 p.30 #3
S: http://imslp.org/wiki/The_Musician's_Companion_(Howe,_Elias)
Z: 2015 John Chambers <jc:trillian.mit.edu>
N: The rhythms aren't quite right at the strain's boundaries; not fixed.
M: 3/8
L: 1/8
K: C
% - - - - - - - - - - - - - - - - - - - - - - - - -
|:\
G2E | G2E | (AF).A | G2E |\
g2e g2e | ded c2z :|\
|: G |\
(Gc).c | (ce).g | gf/e/f | d2G |\
(GB).B | (Bd).f | egB | c2z :|
% - - - - - - - - - - - - - - - - - - - - - - - - -

%%sep 1 1 500

